X: 5640
T: Butterfly, The
R: slip jig
M: 9/8
K: Eminor
"Em" B2 E G2 E"D" F3|"Em" B2 E G2 E "D" FGA|"Em" B2 E G2 E"D" F3|"G" B2 ^c d2 B "D" AFD:|
"Em" B2 c e2 f g3|"G" B2 c g2 e "D" dBA|"Em" B2 c e2 f g2 a|b2 a g2 e "D" dBA|
"Em" B2 c e2 f g3|"G" BAB g2 e "D" dBA|"Em" B2 c e2 f g2 a|"G"bag "D"agf "C"gfe||
"Em" B3 B2 A"G" G2 A|"Em" B3 BAB "D" dBA|"Em" B3 B2 A"G" G2 A|"Em" B2 d g2 e "D" dBA:|

